src/assets/light/retry-all.svg

<svg height="16" viewBox="0 0 16 16" width="16" xmlns="http://www.w3.org/2000/svg"><path d="m13 10v5h-1v-5zm1-8v3.5l-.5.5h-3.5v-1l2.0002905-.00007838c-.9122113-1.21439811-2.36453115-1.99992162-4.0003105-1.99992162-2.76138 0-4.99998 2.23858-4.99998 5 0 2.7614 2.2386 5 4.99998 5v1c-3.31368 0-5.99998-2.6863-5.99998-6 0-3.31371 2.6863-6 5.99998-6 2.0872983 0 3.925657 1.06585029 5.0005088 2.68297757l-.0004888-2.68297757z" fill="#424242" fill-rule="evenodd"/></svg>

<?xml version="1.0" encoding="UTF-8"?>
<svg width="16px" height="16px" viewBox="0 0 16 16" version="1.1" xmlns="http://www.w3.org/2000/svg" xmlns:xlink="http://www.w3.org/1999/xlink">
    <title>Artboard</title>
    <g stroke="none" stroke-width="1" fill="none" fill-rule="evenodd">
        <path d="M13,10 L13,15 L12,15 L12,10 L13,10 Z M14,2 L14,5.5 L13.5,6 L10,6 L10,5 L12.0002905,4.99992162 C11.0880792,3.78552351 9.63575935,3 7.99998,3 C5.2386,3 3,5.23858 3,8 C3,10.7614 5.2386,13 7.99998,13 L7.99998,13 L7.99998,14 C4.6863,14 2,11.3137 2,8 C2,4.68629 4.6863,2 7.99998,2 C10.0872783,2 11.925637,3.06585029 13.0004888,4.68297757 L13.0004888,4.68297757 L13,2 L14,2 Z" fill="#424242"></path>
    </g>
</svg>
